X:7
T:Bourr\'ee Norbert Dentressangle
R:Bourr\'ee
C:Andy Hornby \& John Mabson
A:Lancaster
O:England
M:2/4
L:1/8
K:Bm
%%Copyright:Andy Hornby \& John Mabson 7.4.97
B2FB| d2Bd| f2df| ba2g|\
f>e fg|fd cd|1 e>d ef| ed cd :|2 ef/e/ dc| B4||
|: f>e fg| ba2g| f>e fd| e>f ec|\
d>c dB| fe2d |1 c>d ea| f4 :|2 c>d ef| B4|]
W:Copyright (C) Andy Hornby \& John Mabson 7.4.97
